X:21198 
T:WEDDING REEL, The
B:DMI.0597
Z:Nordberg/Black
R:reel
%Q:1/4=180
M:C|
L:1/8
K:G
dc|B2AG BGAF|G2Bd gedc|BGAG BGAG|FDEF G2dc|
B2AG BGAF|G2Bd gedc|BGAG BGAG|FDEF G2:|
ef|g2ge fgaf|g2ge fddf|g2ge fgaf|bgef g2df|
g2ge fgaf|gfge fddg|bgag bgag|fdef g2:|

%%%

